X: 20783
T: Johnny Loughran's
R: reel
M: 4/4
K: Cmajor
|:dB|AFdF AdFd|AFdF e2 dB|AFdF ABde|fedB e2:|
dB|defg a^gaf|(3bbb bf abaf|defg a^gaf|bfaf e4|
defg a^gaf|(3bbb bf abaf|gage fgfe|dgfe dcdB||

